apps/64/internet-chat.svg

<?xml version="1.0" encoding="UTF-8" standalone="no"?>
<svg
   xmlns:dc="http://purl.org/dc/elements/1.1/"
   xmlns:cc="http://creativecommons.org/ns#"
   xmlns:rdf="http://www.w3.org/1999/02/22-rdf-syntax-ns#"
   xmlns:svg="http://www.w3.org/2000/svg"
   xmlns="http://www.w3.org/2000/svg"
   xmlns:xlink="http://www.w3.org/1999/xlink"
   version="1.1"
   width="64"
   height="64"
   id="svg6955">
  <defs
     id="defs6957">
    <linearGradient
       x1="22.642942"
       y1="26.966721"
       x2="22.642942"
       y2="30.98424"
       id="linearGradient6883"
       xlink:href="#linearGradient3922"
       gradientUnits="userSpaceOnUse"
       gradientTransform="translate(-0.2938755,2.5949995)" />
    <linearGradient
       id="linearGradient3922">
      <stop
         id="stop3924"
         style="stop-color:#000000;stop-opacity:1"
         offset="0" />
      <stop
         id="stop3926-9"
         style="stop-color:#000000;stop-opacity:0"
         offset="1" />
    </linearGradient>
    <linearGradient
       x1="22.642942"
       y1="26.966721"
       x2="22.642942"
       y2="30.98424"
       id="linearGradient6886"
       xlink:href="#linearGradient3922"
       gradientUnits="userSpaceOnUse"
       gradientTransform="translate(-0.2938755,2.5949995)" />
    <linearGradient
       x1="132.3414"
       y1="2.2922528"
       x2="132.3414"
       y2="33.33271"
       id="linearGradient6784"
       xlink:href="#linearGradient6786"
       gradientUnits="userSpaceOnUse"
       gradientTransform="matrix(0.86503711,0,0,1.0140235,-91.244634,3.7436765)" />
    <linearGradient
       id="linearGradient6786">
      <stop
         id="stop6788"
         style="stop-color:#ffffff;stop-opacity:1"
         offset="0" />
      <stop
         id="stop6790"
         style="stop-color:#ffffff;stop-opacity:0.23529412"
         offset="0.46352294" />
      <stop
         id="stop6792"
         style="stop-color:#ffffff;stop-opacity:0.15686275"
         offset="0.76175833" />
      <stop
         id="stop6794"
         style="stop-color:#ffffff;stop-opacity:0.39215687"
         offset="1" />
    </linearGradient>
    <linearGradient
       x1="-51.786404"
       y1="53.514328"
       x2="-51.786404"
       y2="3.6336823"
       id="linearGradient3394-3"
       xlink:href="#linearGradient3104-8-8-97-9"
       gradientUnits="userSpaceOnUse"
       gradientTransform="matrix(0.80749834,0,0,0.83374395,59.410297,-0.3364531)" />
    <linearGradient
       id="linearGradient3104-8-8-97-9">
      <stop
         id="stop3106-5-4-3-6"
         style="stop-color:#000000;stop-opacity:0.32173914"
         offset="0" />
      <stop
         id="stop3108-4-3-7-0"
         style="stop-color:#000000;stop-opacity:0.27826086"
         offset="1" />
    </linearGradient>
    <linearGradient
       id="linearGradient3600-8-3">
      <stop
         id="stop3828-7-6"
         style="stop-color:#f4f4f4;stop-opacity:1"
         offset="0" />
      <stop
         id="stop3794"
         style="stop-color:#e9e9e9;stop-opacity:1"
         offset="0.6956892" />
      <stop
         id="stop3604-2-5"
         style="stop-color:#dbdbdb;stop-opacity:1"
         offset="1" />
    </linearGradient>
    <linearGradient
       id="linearGradient8838-561-565">
      <stop
         id="stop4621"
         style="stop-color:#0a0a0a;stop-opacity:1"
         offset="0" />
      <stop
         id="stop4623"
         style="stop-color:#0a0a0a;stop-opacity:0"
         offset="1" />
    </linearGradient>
    <radialGradient
       cx="62.625"
       cy="4.625"
       r="10.625"
       fx="62.625"
       fy="4.625"
       id="radialGradient6953"
       xlink:href="#linearGradient8838-561-565"
       gradientUnits="userSpaceOnUse"
       gradientTransform="matrix(2.1647059,0,0,0.7529402,-111.56471,34.517647)" />
    <radialGradient
       cx="24.003401"
       cy="3.0403864"
       r="20.984106"
       fx="24.003401"
       fy="3.0403864"
       id="radialGradient3792"
       xlink:href="#linearGradient3600-8-3"
       gradientUnits="userSpaceOnUse"
       gradientTransform="matrix(0,1.7177641,-1.500366,0,28.565093,-35.624161)" />
    <linearGradient
       xlink:href="#linearGradient3922"
       id="linearGradient3023"
       gradientUnits="userSpaceOnUse"
       gradientTransform="matrix(0.65217391,0,0,0.65217391,0.15616468,2.2227214)"
       x1="22.642942"
       y1="26.966721"
       x2="22.642942"
       y2="30.98424" />
    <radialGradient
       xlink:href="#linearGradient3600-8-3"
       id="radialGradient3034"
       gradientUnits="userSpaceOnUse"
       gradientTransform="matrix(0,1.1202809,-0.97849956,0,18.977231,-22.70282)"
       cx="24.003401"
       cy="3.0403864"
       fx="24.003401"
       fy="3.0403864"
       r="20.984106" />
    <radialGradient
       xlink:href="#linearGradient3600-8-3"
       id="radialGradient3813"
       gradientUnits="userSpaceOnUse"
       gradientTransform="matrix(0,1.1202809,-0.97849956,0,18.977231,-22.70282)"
       cx="24.003401"
       cy="3.0403864"
       fx="24.003401"
       fy="3.0403864"
       r="20.984106" />
    <radialGradient
       xlink:href="#linearGradient4566"
       id="radialGradient4665"
       gradientUnits="userSpaceOnUse"
       gradientTransform="matrix(1,0,0,0.33333333,0,25.333333)"
       cx="26"
       cy="38"
       fx="26"
       fy="38"
       r="18" />
    <linearGradient
       id="linearGradient4566">
      <stop
         style="stop-color:#000000;stop-opacity:1;"
         offset="0"
         id="stop4568" />
      <stop
         style="stop-color:#000000;stop-opacity:0;"
         offset="1"
         id="stop4570" />
    </linearGradient>
    <linearGradient
       id="linearGradient4223">
      <stop
         offset="0"
         style="stop-color:#cdf87e;stop-opacity:1"
         id="stop4225" />
      <stop
         offset="0.26238"
         style="stop-color:#a2e34f;stop-opacity:1"
         id="stop4227" />
      <stop
         offset="0.66093999"
         style="stop-color:#68b723;stop-opacity:1"
         id="stop4229" />
      <stop
         offset="1"
         style="stop-color:#1d7e0d;stop-opacity:1"
         id="stop4231" />
    </linearGradient>
    <linearGradient
       xlink:href="#linearGradient4546"
       id="linearGradient4669"
       gradientUnits="userSpaceOnUse"
       x1="28"
       y1="20"
       x2="28"
       y2="40" />
    <linearGradient
       id="linearGradient4546">
      <stop
         offset="0"
         style="stop-color:#ffffff;stop-opacity:1"
         id="stop4548" />
      <stop
         offset="0.33333334"
         style="stop-color:#ffffff;stop-opacity:0.23529412"
         id="stop4550" />
      <stop
         offset="0.95056331"
         style="stop-color:#ffffff;stop-opacity:0.15686275"
         id="stop4552" />
      <stop
         offset="1"
         style="stop-color:#ffffff;stop-opacity:0.39215687"
         id="stop4554" />
    </linearGradient>
    <clipPath
       clipPathUnits="userSpaceOnUse"
       id="clipPath4631">
      <path
         style="fill:#b84747;fill-opacity:1;stroke:none"
         d="m 18,21 c -4.994649,0 -9,4.005351 -9,9 l 0,2 c 0,4.994649 4.005351,9 9,9 l 18,0 c 0.291005,0 0.595612,-0.03033 0.90625,-0.0625 0.164957,-0.01665 0.343572,-0.0382 0.5,-0.0625 0.199113,-0.03129 0.353176,-0.07756 0.5625,-0.125 0.0355,-0.008 0.03758,0.002 0.0625,0 0.218054,-0.05088 0.442966,-0.09019 0.65625,-0.15625 L 38.96875,40.5 39.1875,40.71875 c 1.321675,1.292865 3.339421,1.62433 5.0625,0.8125 -0.854684,-0.590174 -1.70835,-1.221522 -2.375,-2.0625 l -0.28125,-0.375 0.34375,-0.3125 c 0.12104,-0.106162 0.277237,-0.245985 0.4375,-0.40625 0.208233,-0.208236 0.400103,-0.398273 0.5625,-0.59375 0.07931,-0.09546 0.10524,-0.11495 0.0625,-0.0625 0.15692,-0.192563 0.297542,-0.432061 0.46875,-0.6875 0.09522,-0.141184 0.16811,-0.269097 0.25,-0.40625 0.05562,-0.09374 0.1253,-0.228314 0.21875,-0.40625 0.103006,-0.194932 0.17576,-0.34428 0.21875,-0.4375 0.06734,-0.146884 0.1409,-0.32834 0.21875,-0.53125 0.06354,-0.164982 0.13073,-0.2679 0.15625,-0.34375 0.01249,-0.03725 0.03148,-0.118206 0.0625,-0.21875 0.07714,-0.249066 0.14052,-0.47772 0.1875,-0.6875 0.01928,-0.08779 0.03966,-0.218312 0.0625,-0.34375 0.03827,-0.205597 0.06782,-0.42249 0.09375,-0.65625 -0.0082,0.07577 -0.01322,0.03973 0,-0.09375 C 44.9696,32.588254 45,32.298353 45,32 l 0,-2 c 0,-4.994649 -4.005351,-9 -9,-9 l -18,0 z"
         id="path4633" />
    </clipPath>
    <linearGradient
       id="linearGradient4129">
      <stop
         offset="0"
         style="stop-color:#90dbec;stop-opacity:1"
         id="stop4131" />
      <stop
         offset="0.26238"
         style="stop-color:#42baea;stop-opacity:1"
         id="stop4133" />
      <stop
         offset="0.704952"
         style="stop-color:#3689e6;stop-opacity:1"
         id="stop4135" />
      <stop
         offset="1"
         style="stop-color:#2b63a0;stop-opacity:1"
         id="stop4137" />
    </linearGradient>
    <linearGradient
       xlink:href="#linearGradient4546"
       id="linearGradient4644"
       gradientUnits="userSpaceOnUse"
       x1="28"
       y1="20"
       x2="28"
       y2="40" />
    <linearGradient
       id="linearGradient3093">
      <stop
         offset="0"
         style="stop-color:#ffffff;stop-opacity:1"
         id="stop3095" />
      <stop
         offset="0.33333334"
         style="stop-color:#ffffff;stop-opacity:0.23529412"
         id="stop3097" />
      <stop
         offset="0.95056331"
         style="stop-color:#ffffff;stop-opacity:0.15686275"
         id="stop3099" />
      <stop
         offset="1"
         style="stop-color:#ffffff;stop-opacity:0.39215687"
         id="stop3101" />
    </linearGradient>
    <clipPath
       clipPathUnits="userSpaceOnUse"
       id="clipPath3103">
      <path
         style="fill:#b84747;fill-opacity:1;stroke:none"
         d="m 18,21 c -4.994649,0 -9,4.005351 -9,9 l 0,2 c 0,4.994649 4.005351,9 9,9 l 18,0 c 0.291005,0 0.595612,-0.03033 0.90625,-0.0625 0.164957,-0.01665 0.343572,-0.0382 0.5,-0.0625 0.199113,-0.03129 0.353176,-0.07756 0.5625,-0.125 0.0355,-0.008 0.03758,0.002 0.0625,0 0.218054,-0.05088 0.442966,-0.09019 0.65625,-0.15625 L 38.96875,40.5 39.1875,40.71875 c 1.321675,1.292865 3.339421,1.62433 5.0625,0.8125 -0.854684,-0.590174 -1.70835,-1.221522 -2.375,-2.0625 l -0.28125,-0.375 0.34375,-0.3125 c 0.12104,-0.106162 0.277237,-0.245985 0.4375,-0.40625 0.208233,-0.208236 0.400103,-0.398273 0.5625,-0.59375 0.07931,-0.09546 0.10524,-0.11495 0.0625,-0.0625 0.15692,-0.192563 0.297542,-0.432061 0.46875,-0.6875 0.09522,-0.141184 0.16811,-0.269097 0.25,-0.40625 0.05562,-0.09374 0.1253,-0.228314 0.21875,-0.40625 0.103006,-0.194932 0.17576,-0.34428 0.21875,-0.4375 0.06734,-0.146884 0.1409,-0.32834 0.21875,-0.53125 0.06354,-0.164982 0.13073,-0.2679 0.15625,-0.34375 0.01249,-0.03725 0.03148,-0.118206 0.0625,-0.21875 0.07714,-0.249066 0.14052,-0.47772 0.1875,-0.6875 0.01928,-0.08779 0.03966,-0.218312 0.0625,-0.34375 0.03827,-0.205597 0.06782,-0.42249 0.09375,-0.65625 -0.0082,0.07577 -0.01322,0.03973 0,-0.09375 C 44.9696,32.588254 45,32.298353 45,32 l 0,-2 c 0,-4.994649 -4.005351,-9 -9,-9 l -18,0 z"
         id="path3105" />
    </clipPath>
    <radialGradient
       xlink:href="#linearGradient4566"
       id="radialGradient3997"
       gradientUnits="userSpaceOnUse"
       gradientTransform="matrix(1,0,0,0.33333333,0,25.333333)"
       cx="26"
       cy="38"
       fx="26"
       fy="38"
       r="18" />
    <clipPath
       clipPathUnits="userSpaceOnUse"
       id="clipPath4011">
      <path
         style="fill:#ffffff;fill-opacity:0.49803922;stroke:none"
         d="M 20.5,27 C 14.120351,27 9,32.120351 9,38.5 l 0,6 C 9,50.879649 14.120351,56 20.5,56 l 28,0 c 0.448714,0 0.89711,-0.01624 1.3125,-0.0625 l 0.21875,-0.03125 0.1875,0.15625 c 2.200805,1.975841 5.443564,2.464385 8.21875,1.15625 -1.189798,-0.769799 -2.328876,-1.607496 -3.3125,-2.6875 L 54.75,54.125 55.21875,53.78125 C 58.104623,51.692449 60,48.346517 60,44.5 l 0,-6 C 60,32.120351 54.879649,27 48.5,27 l -28,0 z"
         id="path4013" />
    </clipPath>
    <linearGradient
       xlink:href="#linearGradient4546"
       id="linearGradient4021"
       x1="35"
       y1="27"
       x2="35"
       y2="58"
       gradientUnits="userSpaceOnUse" />
    <linearGradient
       xlink:href="#linearGradient4546"
       id="linearGradient4025"
       gradientUnits="userSpaceOnUse"
       x1="35"
       y1="27"
       x2="35"
       y2="58" />
    <radialGradient
       xlink:href="#linearGradient4129"
       id="radialGradient3863"
       gradientUnits="userSpaceOnUse"
       gradientTransform="matrix(1.4637833e-7,4.5283018,-6.3396227,1.5427113e-7,157.14323,-133.58902)"
       cx="34.800907"
       cy="19.739857"
       fx="34.800907"
       fy="19.739857"
       r="26.5" />
    <clipPath
       clipPathUnits="userSpaceOnUse"
       id="clipPath3875">
      <path
         style="fill:#804d4d;fill-opacity:1;stroke:none"
         d="m 23,27 c -7.210649,0 -13,5.78935 -13,13 l 0,3 c 0,7.21065 5.789351,13 13,13 l 25,0 c 1.456363,0 2.85662,-0.221514 4.15625,-0.65625 L 52.4375,55.25 52.625,55.4375 c 2.026948,1.744171 5.01199,2.091294 7.46875,0.6875 -1.169748,-0.862286 -2.320702,-1.787499 -3.25,-2.96875 l -0.28125,-0.375 0.34375,-0.3125 C 59.42544,50.100387 61,46.750004 61,43 l 0,-3 C 61,32.78935 55.210649,27 48,27 l -25,0 z"
         id="path3877" />
    </clipPath>
    <linearGradient
       xlink:href="#linearGradient4546"
       id="linearGradient3885"
       x1="36"
       y1="28"
       x2="36"
       y2="56"
       gradientUnits="userSpaceOnUse" />
    <radialGradient
       xlink:href="#linearGradient4223"
       id="radialGradient3895"
       gradientUnits="userSpaceOnUse"
       gradientTransform="matrix(-1.1314701e-7,5.1320756,6.037736,1.3311414e-7,-86.830262,-176.75472)"
       cx="36"
       cy="19.018763"
       fx="36"
       fy="19.018763"
       r="26.5" />
    <linearGradient
       xlink:href="#linearGradient4546"
       id="linearGradient3897"
       gradientUnits="userSpaceOnUse"
       x1="36"
       y1="28"
       x2="36"
       y2="56" />
    <radialGradient
       xlink:href="#linearGradient4566"
       id="radialGradient3901"
       gradientUnits="userSpaceOnUse"
       gradientTransform="matrix(1,0,0,0.33333333,0,25.333333)"
       cx="26"
       cy="38"
       fx="26"
       fy="38"
       r="18" />
  </defs>
  <metadata
     id="metadata6960">
    <rdf:RDF>
      <cc:Work
         rdf:about="">
        <dc:format>image/svg+xml</dc:format>
        <dc:type
           rdf:resource="http://purl.org/dc/dcmitype/StillImage" />
        <dc:title />
      </cc:Work>
    </rdf:RDF>
  </metadata>
  <path
     transform="matrix(1.4444444,0,0,1.3333333,-9.0555555,-16.166667)"
     d="M 44,38 A 18,6 0 1 1 8,38 18,6 0 1 1 44,38 z"
     id="path3899"
     style="opacity:0.2;fill:url(#radialGradient3901);fill-opacity:1;stroke:none" />
  <path
     id="path3887"
     d="m 41,6.5000004 c 7.479,0 13.5,6.0209986 13.5,13.4999996 l 0,3 c 0,7.479001 -6.021,13.5 -13.5,13.5 l -25,0 c -1.508329,0 -2.960202,-0.235146 -4.3125,-0.6875 -2.1919151,1.886124 -5.4164201,2.277714 -8.0625001,0.75 -0.182011,-0.105084 -0.36239,-0.225315 -0.53125,-0.34375 1.356763,-0.917691 2.607943,-2.042474 3.65625,-3.375 -2.6157,-2.459095 -4.25,-5.953705 -4.25,-9.84375 l 0,-3 c 0,-7.479001 6.021,-13.4999996 13.5000001,-13.4999996 l 25,0 z"
     style="fill:url(#radialGradient3895);fill-opacity:1;stroke:#067d00;stroke-width:1;stroke-opacity:0.49803922000000000" />
  <path
     clip-path="url(#clipPath3875)"
     style="fill:none;stroke:url(#linearGradient3897);stroke-width:2;stroke-miterlimit:4;stroke-opacity:0.49803922;stroke-dasharray:none"
     d="m 23,27 c -7.210649,0 -13,5.78935 -13,13 l 0,3 c 0,7.21065 5.789351,13 13,13 l 25,0 c 1.456363,0 2.85662,-0.221514 4.15625,-0.65625 L 52.4375,55.25 52.625,55.4375 c 2.026948,1.744171 5.01199,2.091294 7.46875,0.6875 -1.169748,-0.862286 -2.320702,-1.787499 -3.25,-2.96875 l -0.28125,-0.375 0.34375,-0.3125 C 59.42544,50.100387 61,46.750004 61,43 l 0,-3 C 61,32.78935 55.210649,27 48,27 l -25,0 z"
     id="path3889"
     transform="matrix(-1,0,0,1,64,-20)" />
  <path
     style="opacity:0.2;fill:url(#radialGradient3997);fill-opacity:1;stroke:none"
     id="path4564"
     d="M 44,38 A 18,6 0 1 1 8,38 18,6 0 1 1 44,38 z"
     transform="matrix(1.4444444,0,0,1.3333333,-1.0555555,2.833333)" />
  <path
     style="fill:url(#radialGradient3863);fill-opacity:1;stroke:#00537d;stroke-width:1;stroke-opacity:0.49803922000000000"
     d="M 23 26.5 C 15.521 26.5 9.5 32.520999 9.5 40 L 9.5 43 C 9.5 50.479001 15.521 56.5 23 56.5 L 48 56.5 C 49.508329 56.5 50.960202 56.264854 52.3125 55.8125 C 54.504415 57.698624 57.72892 58.090214 60.375 56.5625 C 60.557011 56.457416 60.73739 56.337185 60.90625 56.21875 C 59.549487 55.301059 58.298307 54.176276 57.25 52.84375 C 59.8657 50.384655 61.5 46.890045 61.5 43 L 61.5 40 C 61.5 32.520999 55.479 26.5 48 26.5 L 23 26.5 z "
     id="rect3064" />
  <path
     id="path3873"
     d="M 23 27 C 15.789351 27 10 32.78935 10 40 L 10 43 C 10 50.21065 15.789351 56 23 56 L 48 56 C 49.456363 56 50.85662 55.778486 52.15625 55.34375 L 52.4375 55.25 L 52.625 55.4375 C 54.651948 57.181671 57.63699 57.528794 60.09375 56.125 C 58.924002 55.262714 57.773048 54.337501 56.84375 53.15625 L 56.5625 52.78125 L 56.90625 52.46875 C 59.42544 50.100387 61 46.750004 61 43 L 61 40 C 61 32.78935 55.210649 27 48 27 L 23 27 z "
     style="fill:none;fill-opacity:1;stroke:url(#linearGradient3885);stroke-width:2;stroke-opacity:0.49803922000000000;stroke-miterlimit:4;stroke-dasharray:none"
     clip-path="url(#clipPath3875)" />
  <path
     style="opacity:0.5;fill:#ffffff;fill-opacity:1;stroke:none"
     d="M 18.0625,48.5 C 18.021396,48.659759 18,48.827411 18,49 c 0,1.104569 0.895431,2 2,2 1.104569,0 2,-0.895431 2,-2 0,-0.172589 -0.0214,-0.340241 -0.0625,-0.5 C 21.715537,49.362699 20.93198,50 20,50 19.06802,50 18.284463,49.362699 18.0625,48.5 z m 6,0 C 24.021396,48.659759 24,48.827411 24,49 c 0,1.104569 0.895431,2 2,2 1.104569,0 2,-0.895431 2,-2 0,-0.172589 -0.0214,-0.340241 -0.0625,-0.5 C 27.715537,49.362699 26.93198,50 26,50 25.06802,50 24.284463,49.362699 24.0625,48.5 z m 6,0 C 30.021396,48.659759 30,48.827411 30,49 c 0,1.104569 0.895431,2 2,2 1.104569,0 2,-0.895431 2,-2 0,-0.172589 -0.0214,-0.340241 -0.0625,-0.5 C 33.715537,49.362699 32.93198,50 32,50 31.06802,50 30.284463,49.362699 30.0625,48.5 z"
     id="path4027" />
  <path
     id="path4038"
     d="m 20,46 c -1.104569,0 -2,0.895431 -2,2 0,1.104569 0.895431,2 2,2 1.104569,0 2,-0.895431 2,-2 0,-1.104569 -0.895431,-2 -2,-2 z m 6,0 c -1.104569,0 -2,0.895431 -2,2 0,1.104569 0.895431,2 2,2 1.104569,0 2,-0.895431 2,-2 0,-1.104569 -0.895431,-2 -2,-2 z m 6,0 c -1.104569,0 -2,0.895431 -2,2 0,1.104569 0.895431,2 2,2 1.104569,0 2,-0.895431 2,-2 0,-1.104569 -0.895431,-2 -2,-2 z"
     style="opacity:0.4;fill:#00537d;fill-opacity:1;stroke:none" />
</svg>

<svg xmlns="http://www.w3.org/2000/svg" xmlns:xlink="http://www.w3.org/1999/xlink" viewBox="0 0 64 64"><defs><linearGradient id="a"><stop offset="0"/><stop offset="1" stop-opacity="0"/></linearGradient><linearGradient id="d"><stop offset="0" stop-color="#cdf87e"/><stop offset=".262" stop-color="#a2e34f"/><stop offset=".661" stop-color="#68b723"/><stop offset="1" stop-color="#1d7e0d"/></linearGradient><linearGradient id="c"><stop offset="0" stop-color="#fff"/><stop offset=".333" stop-color="#fff" stop-opacity=".235"/><stop offset=".951" stop-color="#fff" stop-opacity=".157"/><stop offset="1" stop-color="#fff" stop-opacity=".392"/></linearGradient><linearGradient id="b"><stop offset="0" stop-color="#90dbec"/><stop offset=".262" stop-color="#42baea"/><stop offset=".705" stop-color="#3689e6"/><stop offset="1" stop-color="#2b63a0"/></linearGradient><radialGradient xlink:href="#a" id="i" gradientUnits="userSpaceOnUse" gradientTransform="matrix(1 0 0 .33333 0 25.333)" cx="26" cy="38" fx="26" fy="38" r="18"/><radialGradient xlink:href="#b" id="j" gradientUnits="userSpaceOnUse" gradientTransform="matrix(0 4.5283 -6.33962 0 157.143 -133.59)" cx="34.801" cy="19.74" fx="34.801" fy="19.74" r="26.5"/><clipPath id="g"><path d="M23 27c-7.21 0-13 5.79-13 13v3c0 7.21 5.79 13 13 13h25c1.456 0 2.857-.222 4.156-.656l.282-.094.187.188a6.502 6.502 0 0 0 7.47.687c-1.17-.862-2.322-1.787-3.25-2.97l-.282-.374.343-.31A12.932 12.932 0 0 0 61 43v-3c0-7.21-5.79-13-13-13H23z" fill="#804d4d"/></clipPath><linearGradient xlink:href="#c" id="k" x1="36" y1="28" x2="36" y2="56" gradientUnits="userSpaceOnUse"/><radialGradient xlink:href="#d" id="f" gradientUnits="userSpaceOnUse" gradientTransform="matrix(0 5.13208 6.03774 0 -86.83 -176.755)" cx="36" cy="19.019" fx="36" fy="19.019" r="26.5"/><linearGradient xlink:href="#c" id="h" gradientUnits="userSpaceOnUse" x1="36" y1="28" x2="36" y2="56"/><radialGradient xlink:href="#a" id="e" gradientUnits="userSpaceOnUse" gradientTransform="matrix(1 0 0 .33333 0 25.333)" cx="26" cy="38" fx="26" fy="38" r="18"/></defs><path transform="matrix(1.44444 0 0 1.33333 -9.056 -16.167)" d="M44 38a18 6 0 1 1-36 0 18 6 0 1 1 36 0z" opacity=".2" fill="url(#e)"/><path d="M41 6.5c7.48 0 13.5 6.02 13.5 13.5v3c0 7.48-6.02 13.5-13.5 13.5H16c-1.508 0-2.96-.235-4.313-.688a6.995 6.995 0 0 1-8.062.75 7.275 7.275 0 0 1-.53-.343 16.15 16.15 0 0 0 3.655-3.38A13.46 13.46 0 0 1 2.5 23v-3C2.5 12.52 8.52 6.5 16 6.5h25z" fill="url(#f)" stroke="#067d00" stroke-opacity=".498"/><path clip-path="url(#g)" d="M23 27c-7.21 0-13 5.79-13 13v3c0 7.21 5.79 13 13 13h25c1.456 0 2.857-.222 4.156-.656l.282-.094.187.188a6.502 6.502 0 0 0 7.47.687c-1.17-.862-2.322-1.787-3.25-2.97l-.282-.374.343-.31A12.932 12.932 0 0 0 61 43v-3c0-7.21-5.79-13-13-13H23z" transform="matrix(-1 0 0 1 64 -20)" fill="none" stroke="url(#h)" stroke-width="2" stroke-opacity=".498"/><path d="M44 38a18 6 0 1 1-36 0 18 6 0 1 1 36 0z" transform="matrix(1.44444 0 0 1.33333 -1.056 2.833)" opacity=".2" fill="url(#i)"/><path d="M23 26.5c-7.48 0-13.5 6.02-13.5 13.5v3c0 7.48 6.02 13.5 13.5 13.5h25c1.508 0 2.96-.235 4.313-.688a6.995 6.995 0 0 0 8.062.75c.182-.105.362-.225.53-.343a16.15 16.15 0 0 1-3.655-3.38A13.46 13.46 0 0 0 61.5 43v-3c0-7.48-6.02-13.5-13.5-13.5H23z" fill="url(#j)" stroke="#00537d" stroke-opacity=".498"/><path d="M23 27c-7.21 0-13 5.79-13 13v3c0 7.21 5.79 13 13 13h25c1.456 0 2.857-.222 4.156-.656l.282-.094.187.188a6.502 6.502 0 0 0 7.47.687c-1.17-.862-2.322-1.787-3.25-2.97l-.282-.374.343-.31A12.932 12.932 0 0 0 61 43v-3c0-7.21-5.79-13-13-13H23z" clip-path="url(#g)" fill="none" stroke="url(#k)" stroke-width="2" stroke-opacity=".498"/><path d="M18.063 48.5A2.005 2.005 0 0 0 20 51a2 2 0 0 0 1.938-2.5 2 2 0 0 1-3.875 0zm6 0A2.005 2.005 0 0 0 26 51a2 2 0 0 0 1.938-2.5 2 2 0 0 1-3.875 0zm6 0A2.005 2.005 0 0 0 32 51a2 2 0 0 0 1.938-2.5 2 2 0 0 1-3.876 0z" opacity=".5" fill="#fff"/><path d="M20 46a2 2 0 1 0 0 4 2 2 0 0 0 0-4zm6 0a2 2 0 1 0 0 4 2 2 0 0 0 0-4zm6 0a2 2 0 1 0 0 4 2 2 0 0 0 0-4z" opacity=".4" fill="#00537d"/></svg>
